X:8
T:"Italienischer Walzer"- Valse/Walzer/Waltz
S:K.Bauer CD Transkription
Z:abc transcription Simon Wascher
N:please mail errors to simon.wascher@chello.at
M:3/4
L:1/4
K:Gm
G/^F/G/A/B/c/|dBG|e/d/c/d/e/g/|dBG|
c/B/A/c/B/A/|B/A/G/B/A/G/|1AcB|AA2:|2DBA|GG2||
E:8
|:d/B/G/d/B/G/|d/B/G/d/B/G/|e/B/G/e/B/G/|e/B/G/e/B/G/|
DD/D/4=E/4 ^F/G/|(3A/G/A/ (3B/A/B/ (3c/B/c/|1dB/A/B/c/|AA2:|2BB/A/G/^F/|GG2||
